symbols/web/fireplace/materialsymbolsoutlined/fireplace_wght200gradN25fill1_48px.svg

<svg xmlns="http://www.w3.org/2000/svg" height="48" width="48"><path d="M20.95 36.2q2.05 1.6 4.4.775Q27.7 36.15 28 33.55q.25-2.4-1.5-3.55t-2.65-3.05q-.25.75-.25 1.325t.15 1.325q.15.9.35 1.65.2.75.05 1.65-.2 1-1.1 1.95-.9.95-2.1 1.35Zm-14.9 5.75V6.05h35.9v35.9Zm1.5-1.5h5.85V38.9h6.15q-1.5-1-2.35-2.7-.85-1.7-.85-3.5 0-2.1.625-3.9.625-1.8 1.65-3.3 1.025-1.5 2.35-2.7 1.325-1.2 2.775-2.1.75 2.35 2.075 4.025Q27.15 26.4 29.25 28.1q1.3 1.05 1.85 2.225t.55 2.475q0 1.7-.75 3.325-.75 1.625-2.3 2.775h6v1.55h5.85V7.55H7.55Z"/></svg>

<svg xmlns="http://www.w3.org/2000/svg" height="48" width="48"><path d="M20.95 36.2Q23 37.8 25.35 36.975Q27.7 36.15 28 33.55Q28.25 31.15 26.5 30Q24.75 28.85 23.85 26.95Q23.6 27.7 23.6 28.275Q23.6 28.85 23.75 29.6Q23.9 30.5 24.1 31.25Q24.3 32 24.15 32.9Q23.95 33.9 23.05 34.85Q22.15 35.8 20.95 36.2ZM6.05 41.95V6.05H41.95V41.95ZM7.55 40.45H13.4V38.9H19.55Q18.05 37.9 17.2 36.2Q16.35 34.5 16.35 32.7Q16.35 30.6 16.975 28.8Q17.6 27 18.625 25.5Q19.65 24 20.975 22.8Q22.3 21.6 23.75 20.7Q24.5 23.05 25.825 24.725Q27.15 26.4 29.25 28.1Q30.55 29.15 31.1 30.325Q31.65 31.5 31.65 32.8Q31.65 34.5 30.9 36.125Q30.15 37.75 28.6 38.9H34.6V40.45H40.45V7.55H7.55Z"/></svg>
